X: 99
T:Bratach Bana
G:reel
M:2/4
L:1/8
Q:1/4=108
K:D
% D major/mixolydian hexatonic
Ad  da|f>e f/e/d|Ad  da   |   f>e f/e/d|
g2  ab|a>g fg   |aa  ef/e/|   dA  BA  :|
f>e fA|BA  d>B  |AA  BA   |   fe  eA   |
f>e fA|BA  d>e  |f<a ef/e/|[1 dA  BA  :|\
                           [2 d4      |]

